icons/apps-16.svg

<svg xmlns="http://www.w3.org/2000/svg" width="16" height="16" viewBox="0 0 16 16"><path d="M1.5 3.25c0-.966.784-1.75 1.75-1.75h2.5c.966 0 1.75.784 1.75 1.75v2.5A1.75 1.75 0 015.75 7.5h-2.5A1.75 1.75 0 011.5 5.75zm7 0c0-.966.784-1.75 1.75-1.75h2.5c.966 0 1.75.784 1.75 1.75v2.5a1.75 1.75 0 01-1.75 1.75h-2.5A1.75 1.75 0 018.5 5.75zm-7 7c0-.966.784-1.75 1.75-1.75h2.5c.966 0 1.75.784 1.75 1.75v2.5a1.75 1.75 0 01-1.75 1.75h-2.5a1.75 1.75 0 01-1.75-1.75zm7 0c0-.966.784-1.75 1.75-1.75h2.5c.966 0 1.75.784 1.75 1.75v2.5a1.75 1.75 0 01-1.75 1.75h-2.5a1.75 1.75 0 01-1.75-1.75zM3.25 3a.25.25 0 00-.25.25v2.5c0 .138.112.25.25.25h2.5A.25.25 0 006 5.75v-2.5A.25.25 0 005.75 3zm7 0a.25.25 0 00-.25.25v2.5c0 .138.112.25.25.25h2.5a.25.25 0 00.25-.25v-2.5a.25.25 0 00-.25-.25zm-7 7a.25.25 0 00-.25.25v2.5c0 .138.112.25.25.25h2.5a.25.25 0 00.25-.25v-2.5a.25.25 0 00-.25-.25zm7 0a.25.25 0 00-.25.25v2.5c0 .138.112.25.25.25h2.5a.25.25 0 00.25-.25v-2.5a.25.25 0 00-.25-.25z"/></svg>

<svg xmlns="http://www.w3.org/2000/svg" width="16" height="16" viewBox="0 0 16 16">
  <defs/>
  <path d="M1.5,3.25 C1.5,2.284 2.284,1.5 3.25,1.5 L5.75,1.5 C6.716,1.5 7.5,2.284 7.5,3.25 L7.5,5.75 C7.5,6.716 6.716,7.5 5.75,7.5 L3.25,7.5 C2.284,7.5 1.5,6.716 1.5,5.75 Z M8.5,3.25 C8.5,2.284 9.284,1.5 10.25,1.5 L12.75,1.5 C13.716,1.5 14.5,2.284 14.5,3.25 L14.5,5.75 C14.5,6.716 13.716,7.5 12.75,7.5 L10.25,7.5 C9.284,7.5 8.5,6.716 8.5,5.75 Z M1.5,10.25 C1.5,9.284 2.284,8.5 3.25,8.5 L5.75,8.5 C6.716,8.5 7.5,9.284 7.5,10.25 L7.5,12.75 C7.5,13.716 6.716,14.5 5.75,14.5 L3.25,14.5 C2.284,14.5 1.5,13.716 1.5,12.75 Z M8.5,10.25 C8.5,9.284 9.284,8.5 10.25,8.5 L12.75,8.5 C13.716,8.5 14.5,9.284 14.5,10.25 L14.5,12.75 C14.5,13.716 13.716,14.5 12.75,14.5 L10.25,14.5 C9.284,14.5 8.5,13.716 8.5,12.75 Z M3.25,3 C3.112,3 3,3.112 3,3.25 L3,5.75 C3,5.888 3.112,6 3.25,6 L5.75,6 C5.888,6 6,5.888 6,5.75 L6,3.25 C6,3.112 5.888,3 5.75,3 Z M10.25,3 C10.112,3 10,3.112 10,3.25 L10,5.75 C10,5.888 10.112,6 10.25,6 L12.75,6 C12.888,6 13,5.888 13,5.75 L13,3.25 C13,3.112 12.888,3 12.75,3 Z M3.25,10 C3.112,10 3,10.112 3,10.25 L3,12.75 C3,12.888 3.112,13 3.25,13 L5.75,13 C5.888,13 6,12.888 6,12.75 L6,10.25 C6,10.112 5.888,10 5.75,10 Z M10.25,10 C10.112,10 10,10.112 10,10.25 L10,12.75 C10,12.888 10.112,13 10.25,13 L12.75,13 C12.888,13 13,12.888 13,12.75 L13,10.25 C13,10.112 12.888,10 12.75,10 Z"/>
</svg>
